files/resources/svgs/general/m-arrow-trending-down.svg

<svg width="20" height="20" viewBox="0 0 20 20" fill="none" xmlns="http://www.w3.org/2000/svg">
<path fill-rule="evenodd" clip-rule="evenodd" d="M1.21967 5.22211C1.51256 4.92922 1.98744 4.92922 2.28033 5.22211L7 9.94178L10.7685 6.17329C10.9187 6.02306 11.1256 5.94359 11.3378 5.95463C11.55 5.96568 11.7475 6.06619 11.8813 6.23121C13.5732 8.31739 14.888 10.7612 15.6939 13.4849L17.2685 10.7576C17.4756 10.3989 17.9343 10.276 18.293 10.4831C18.6517 10.6902 18.7747 11.1489 18.5675 11.5076L16.0927 15.7942C15.8856 16.153 15.4269 16.2759 15.0682 16.0688L10.7815 13.5939C10.4228 13.3868 10.2999 12.9281 10.507 12.5694C10.7141 12.2106 11.1728 12.0877 11.5315 12.2949L14.2401 13.8586C13.5741 11.6301 12.5419 9.60646 11.2278 7.83529L7.53033 11.5328C7.38968 11.6734 7.19891 11.7524 7 11.7524C6.80109 11.7524 6.61032 11.6734 6.46967 11.5328L1.21967 6.28277C0.926777 5.98988 0.926777 5.515 1.21967 5.22211Z" fill="#0F172A"/>
</svg>

<svg xmlns="http://www.w3.org/2000/svg" viewBox="0 0 20 20" fill="currentColor" aria-hidden="true">
  <path fill-rule="evenodd" d="M1.22 5.222a.75.75 0 011.06 0L7 9.942l3.768-3.769a.75.75 0 011.113.058 20.908 20.908 0 013.813 7.254l1.574-2.727a.75.75 0 011.3.75l-2.475 4.286a.75.75 0 01-1.025.275l-4.287-2.475a.75.75 0 01.75-1.3l2.71 1.565a19.422 19.422 0 00-3.013-6.024L7.53 11.533a.75.75 0 01-1.06 0l-5.25-5.25a.75.75 0 010-1.06z" clip-rule="evenodd"/>
</svg>
